img/svg/bg/cloud3.svg

<svg width="106" height="51" viewBox="0 0 106 51" fill="none" xmlns="http://www.w3.org/2000/svg">
<path d="M96.4475 22.8318C95.2155 16.5598 89.6902 11.8184 83.0449 11.8184C80.2075 11.8184 77.5942 12.6771 75.4289 14.1331C71.4342 6.92778 63.7435 2.03711 54.8955 2.03711C43.1355 2.03711 33.4289 10.6984 31.7115 21.9731C30.7409 21.7491 29.7329 21.6371 28.6875 21.6371C23.1622 21.6371 18.3835 24.9224 16.2555 29.6638C14.9115 29.0291 13.4182 28.6558 11.8129 28.6558C6.21287 28.6558 1.6582 33.2104 1.6582 38.8104C1.6582 44.4104 6.21287 48.9651 11.8129 48.9651H28.6875H32.6449H71.6209H72.8902H90.7729C98.3142 48.9651 104.437 42.8424 104.437 35.3011C104.437 29.7384 101.152 24.9971 96.4475 22.8318Z" stroke="#C8C8C8" stroke-width="3" stroke-miterlimit="10"/>
</svg>

<svg width="106" height="51" viewBox="0 0 106 51" fill="none" xmlns="http://www.w3.org/2000/svg"><path d="M96.448 22.832c-1.232-6.272-6.758-11.014-13.403-11.014-2.838 0-5.45.86-7.616 2.315C71.434 6.928 63.743 2.037 54.895 2.037c-11.76 0-21.466 8.661-23.184 19.936a13.406 13.406 0 00-3.023-.336 13.62 13.62 0 00-12.432 8.027 10.345 10.345 0 00-4.443-1.008c-5.6 0-10.155 4.554-10.155 10.154s4.555 10.155 10.155 10.155h78.96c7.541 0 13.664-6.123 13.664-13.664 0-5.563-3.285-10.304-7.99-12.47z" stroke="#C8C8C8" stroke-width="3" stroke-miterlimit="10"/></svg>
